**kern	**kern	**dynam
*part1	*part1	*part1
*staff2	*staff1	*
*I"Piano	*	*
*clefF4	*clefG2	*
*k[b-e-]	*k[b-e-]	*
=1	=1	=1
4BB- 4F	4d 4f 4b-	.
!	!LO:TX:b:i:t=rit.	!
8r	8r	.
4r	4r	.
8r	8r	.
=	=	=
!	!LO:TX:b:i:t=suivez	!
4C	4B- 4c 4en	.
8r	8r	.
4r;	4r;	.
8r	8r	.
=	=	=
4FF 4F	4c 4e-X	.
8r	8r	.
4r	4r	.
8r	8r	.
=	=	=
2.r	2.r	.
*	*clefF4	*
=	=	=
(4BBB- 4BB-	(4F 4B- 4d	>
8EE-	8G-X 8B- 8e-	.
!	!LO:TX:b:i:t=morendo	!
4BB-	4F 4B- 4d	.
8EE-)	8G-) 8B- 8e-	.
=	=	=
(8BB-L	(8FL 8B- 8d	.
8EE-	8G-X 8B- 8e-	.
8BB-J	8FJ 8B- 8d	.
8EE-L	8G-L 8B- 8e-	.
8BB-	8F 8B- 8d	.
8EE-J)	8G-;J) 8B- 8e-	.
=	=	=
2.BB-;	2.F; 2.B- 2.d	] pp >
==	==	==
*-	*-	*-
!!!system-decoration: {(s1,s2)}
